X: 209
T:Up to your knees in Sand
M:4/4
L:1/8
R:Reel
Z:Chris Corrigan
K:G
N:UP TO YOUR KNEES IN SAND (Chuig na Gline i nGaineamh Th). AKA and
see "The West Clare Reel." Irish, Reel. G
Major/E Dorian. Standard. AABB. The melody bears some similarity to the
better-known "Temperance Reel." Source for
notated version: whistle player Mary Bergin (Ireland) [Breathnach].
Black, 1996; No. 1, pg. 1. Breathnach, Vol. 3, 1985;
No. 159, pg. 74. Gael-Linn Records CEF 071, Mary Bergin - "Feadoga
Stain" (1979).
G2 GF GABc|dBeB dBAF|DFAF BFAF|ABAF GFEF|
G2 GF GABc|dBeB dBAd|(3Bcd ec dBAF|DEFD E3 F||
GBBA GBEG|FAAG FADF|GBBA GBdB|AGFA E3 F|
GBBA GBEG|FAAG FADF|G2 GF GBdB|AGFG E3 F||
<end>
<start>
